X:85
T:Grace
S:American Veteran Fifer #85
C:J.L. Blatchley, Co.E.2nd N.Y.H.A.
M:6/8
L:1/8
Q:1/8=300
K:G 
%%MIDI program 72
%%MIDI transpose 8
%%MIDI ratio 3 1
D | G2B d2g | a2g efg | d2g b2g | a3 a2G |
G2B d2g | a2g efg | d2b a2f | g3 g2 :|
|:d | gab g2d | e2g d2d | gab g2d | efg a3 |
b2g efg | dBg dBG | ABc def | g2b g2 :|



